X:1
T:Title
%%score 1 { 2 | 3 }
L:1/8
Q:1/4=110
M:4/4
K:F
V:1 treble nm="Grand Piano, Unnamed-000"
V:2 bass nm="Choir Pad, St. George�s Windsor"
V:3 bass 
V:1
 [CA]3 [CA] [Cc]2 [CA]2 | [DF]2 [EG]2 [FA]4 | [CA]3 [CA] [Cc]2 [CA]2 | [DF]2 [DG]2 [^CA]4 | %4
w: By~George~Job~Elvey,~1858 * * *||||
 [DA]3 [DA] [DB]2 [DB]2 | [CG]3 [CG] [CA]4 | [CA]2 [D=B]2 [Cc]2 [DF]2 | [CE]2 [=B,D]2 C4 | %8
w: ||||
 [CE]3 [CE] [CG]2 [CE]2 | [CF]2 [B,G]2 [A,A]4 | [CA]3 [CA] [Fc]2 [FA]2 | [FB]2 [_Ec]2 [Dd]4 | %12
w: ||||
 [^Fd]3 [Dd] [DB]2 [DG]2 | [Ec]3 [Cc] [CA]4 | [FB]2 [Fd]2 [Fc]2 F2 | [FA]2 [EG]2 [CF]4- | %16
w: ||||
 [CF]4 z4 |] %17
w: |
V:2
 F,3 F, G,2 A,2 | A,2 C2 C4 | F,3 F, G,2 F,2 | A,2 G,2 E,4 | F,3 F, G,2 G,2 | E,3 E, F,4 | %6
 F,2 F,2 G,2 A,2 | G,2 G,2 E,4 | G,3 G, E,2 G,2 | F,2 D,E, F,4 | F,3 F, A,2 C2 | B,2 G,A, B,4 | %12
 A,3 A, G,2 B,2 | G,3 G, F,4 | F,2 B,2[K:treble] C2 A,2 | C2 C2 A,4- | A,4 z4 |] %17
V:3
 z4 E,2 F,2 | D,2 C,2 F,4 | z4 E,2 z2 | D,2 B,,2 A,,4 | D,3 D, G,,2 G,,2 | C,3 C, F,,4 | %6
 z2 D,2 E,2 F,2 | z2 G,,2 C,4 | C,3 C, C,2 B,,2 | A,,2 G,,2 F,,4 | F,,3 F,, F,2 _E,2 | %11
 D,2 C,2 B,,4 | D,3 ^F, z2 G,2 | C,3 E, z4 | D,2 B,,2 A,,2 D,2 | C,2 C,2 F,4- | F,4 z4 |] %17

